trunk/WorldWind/resources/milstd2525/icons/ems/ehfahb---------.svg

<?xml version="1.0" encoding="UTF-8" standalone="no"?>
<!--
Copyright (C) 2012 United States Government as represented by the Administrator of the
National Aeronautics and Space Administration.
All Rights Reserved.
-->

<!--
MIL-STD-2525 tactical symbol icon image. During icon composition this image is multiplied by the desired frame color 
(e.g. black), then drawn on top of the frame and fill.
-->

<svg
   xmlns:dc="http://purl.org/dc/elements/1.1/"
   xmlns:cc="http://creativecommons.org/ns#"
   xmlns:rdf="http://www.w3.org/1999/02/22-rdf-syntax-ns#"
   xmlns:svg="http://www.w3.org/2000/svg"
   xmlns="http://www.w3.org/2000/svg"
   xmlns:sodipodi="http://sodipodi.sourceforge.net/DTD/sodipodi-0.dtd"
   xmlns:inkscape="http://www.inkscape.org/namespaces/inkscape"
   height="400px"
   viewBox="0 0 400 400"
   width="400px"
   id="svg2"
   version="1.1"
   inkscape:version="0.48.2 r9819"
   sodipodi:docname="ehfahb---------.svg">
  <metadata
     id="metadata24">
    <rdf:RDF>
      <cc:Work
         rdf:about="">
        <dc:format>image/svg+xml</dc:format>
        <dc:type
           rdf:resource="http://purl.org/dc/dcmitype/StillImage" />
      </cc:Work>
    </rdf:RDF>
  </metadata>
  <defs
     id="defs22" />
  <sodipodi:namedview
     pagecolor="#ffffff"
     bordercolor="#666666"
     borderopacity="1"
     objecttolerance="10"
     gridtolerance="10"
     guidetolerance="10"
     inkscape:pageopacity="0"
     inkscape:pageshadow="2"
     inkscape:window-width="640"
     inkscape:window-height="480"
     id="namedview20"
     showgrid="false"
     inkscape:zoom="0.59"
     inkscape:cx="200"
     inkscape:cy="200"
     inkscape:window-x="139"
     inkscape:window-y="72"
     inkscape:window-maximized="0"
     inkscape:current-layer="svg2" />
  <g
     transform="matrix(100,0,0,100,73,71)"
     id="g4"
     style="stroke:#000000;stroke-width:0.06;stroke-miterlimit:4;stroke-opacity:1;stroke-dasharray:0.12, 0.06;stroke-dashoffset:0">
    <path
       inkscape:connector-curvature="0"
       d="m 1.26414,0.513268 c 0.00481,0 0.88801,0.495012 0.92739,0.529242 l -0.12139,0 0,0.96623 -1.59743,0 0,-0.96623 -0.121386,0 C 0.389564,1.00927 0.52373,0.941311 0.577938,0.909823 0.655088,0.865008 0.728733,0.823811 0.80482,0.777402 0.84543,0.752626 1.2616,0.513268 1.26414,0.513268 z M 0.18138,1.09106 0.429006,1.08621 l 0,0.96137 1.684834,0 -3e-5,-0.96005 0.24765,0.00353 C 2.34959,1.07485 1.27115,0.464713 1.26414,0.464713 1.26265,0.464713 0.776768,0.748288 0.721925,0.777052 0.634591,0.822859 0.535645,0.881001 0.45037,0.932772 0.383118,0.973603 0.229968,1.04883 0.181386,1.09106 z"
       style="fill:#000000;stroke:#000000;stroke-width:0.06;stroke-miterlimit:4;stroke-opacity:1;stroke-dasharray:0.12, 0.06;stroke-dashoffset:0"
       id="path6" />
    <path
       d="m 1.26414,0.513264 c -0.00255,0 -0.418711,0.239358 -0.459321,0.264134 C 0.728732,0.823807 0.655087,0.865004 0.577937,0.909819 0.523728,0.941307 0.389563,1.00927 0.351323,1.0425 l 0.121386,0 0,0.96623 1.597431,0 0,-0.96623 0.12139,0 C 2.15215,1.00828 1.26895,0.513264 1.26414,0.513264 z"
       style="fill:#ffffff;stroke:#000000;stroke-width:0.06;stroke-miterlimit:4;stroke-opacity:1;stroke-dasharray:0.12, 0.06;stroke-dashoffset:0"
       id="path8"
       inkscape:connector-curvature="0"
       sodipodi:nodetypes="sccccccccs" />
  </g>
  <g
     transform="matrix(70,0,0,70,108.30001,126)"
     id="g12">
    <path
       inkscape:connector-curvature="0"
       d="M 0.403118,0.916508 C 0.453039,0.928134 0.566031,0.990335 0.62385,1.0128 0.695862,1.04077 0.768748,1.07948 0.843933,1.10973 0.895051,1.1303 1.27623,1.30397 1.28876,1.30397 1.31204,1.30397 1.68565,1.13428 1.74003,1.11114 1.81733,1.07825 1.88815,1.04533 1.96508,1.01413 2.02413,0.990173 2.13818,0.928464 2.1895,0.916507 l 0,-0.080515 -1.786386,0 0,0.080515 z"
       style="fill:#ffffff"
       id="path14" />
    <path
       inkscape:connector-curvature="0"
       d="M 0.403118,0.966827 1.2937,1.35407 2.1895,0.966827 l 0,0.795063 -1.786386,0 0,-0.795063 z M 1.96508,1.01413 C 1.88815,1.04533 1.81733,1.07825 1.74004,1.11114 1.68565,1.13428 1.31205,1.30397 1.28877,1.30397 1.27624,1.30397 0.895054,1.1303 0.843936,1.10973 0.768751,1.07949 0.695865,1.04077 0.623853,1.0128 0.566034,0.990335 0.453042,0.928135 0.403121,0.916509 l 0,-0.080516 1.786389,0 0,0.080516 C 2.13818,0.928465 2.02414,0.990174 1.96508,1.01413 z m -1.602212,0.79305 1.866902,0 0,-1.011439 -1.866902,0 z"
       style="fill:#000000"
       id="path16" />
    <polygon
       points="0.403118,1.76189 2.1895,1.76189 2.1895,0.966827 1.2937,1.35407 0.403118,0.966827 "
       style="fill:#ffffff"
       id="polygon18" />
  </g>
</svg>

<?xml version="1.0"?>
<!--
Copyright (C) 2012 United States Government as represented by the Administrator of the
National Aeronautics and Space Administration.
All Rights Reserved.
-->

<!DOCTYPE svg PUBLIC "-//W3C//DTD SVG 1.1//EN" "http://www.w3.org/Graphics/SVG/1.1/DTD/svg11.dtd" >
<!--
MIL-STD-2525 tactical symbol icon image. During icon composition this image is multiplied by the desired frame color 
(e.g. black), then drawn on top of the frame and fill.
-->
<svg xmlns:xlink="http://www.w3.org/1999/xlink" height="400px" viewBox="0 0 400 400" width="400px"><g transform="scale(100) translate(0.73 0.71)"><path d="M1.26414 0.513268 C1.26895 0.513268 2.15215 1.00828 2.19153 1.04251 L2.07014 1.04251     L2.07014 2.00874 L0.47271 2.00874 L0.47271 1.04251 L0.351324 1.04251 C0.389564     1.00927 0.52373 0.941311 0.577938 0.909823 C0.655088 0.865008 0.728733     0.823811 0.80482 0.777402 C0.84543 0.752626 1.2616 0.513268 1.26414 0.513268     zM0.18138 1.09106 L0.429006 1.08621 L0.429006 2.04758 L2.11384 2.04758 L2.11381     1.08753 L2.36146 1.09106 C2.34959 1.07485 1.27115 0.464713 1.26414 0.464713     C1.26265 0.464713 0.776768 0.748288 0.721925 0.777052 C0.634591 0.822859     0.535645 0.881001 0.45037 0.932772 C0.383118 0.973603 0.229968 1.04883 0.181386     1.09106 z" style="fill:rgb(0,0,0)"/><path d="M0.569819 1.16389 L1.96332 1.16389 L1.96332 1.87278 L0.569819 1.87278 zM1.26414 0.513264     C1.26159 0.513264 0.845429 0.752622 0.804819 0.777398 C0.728732 0.823807     0.655087 0.865004 0.577937 0.909819 C0.523728 0.941307 0.389563 1.00927     0.351323 1.0425 L0.472709 1.0425 L0.472709 2.00873 L2.07014 2.00873 L2.07014     1.0425 L2.19153 1.0425 C2.15215 1.00828 1.26895 0.513264 1.26414 0.513264 z" style="fill:rgb(255,255,255)"/><rect height="80" style="fill:rgb(255,255,255);stroke:rgb(255,255,255);stroke-width:1" transform="matrix(0.01 0 0 0.01 -0.73 -0.71)" width="148" x="126" y="184"/></g><g transform="scale(70) translate(0.69 0.7) translate(0.857143 1.1)"><path d="M0.403118 0.916508 C0.453039 0.928134 0.566031 0.990335 0.62385 1.0128 C0.695862     1.04077 0.768748 1.07948 0.843933 1.10973 C0.895051 1.1303 1.27623 1.30397 1.28876     1.30397 C1.31204 1.30397 1.68565 1.13428 1.74003 1.11114 C1.81733 1.07825     1.88815 1.04533 1.96508 1.01413 C2.02413 0.990173 2.13818 0.928464 2.1895     0.916507 L2.1895 0.835992 L0.403114 0.835992 L0.403114 0.916507 z" style="fill:rgb(255,255,255)"/><path d="M0.403118 0.966827 L1.2937 1.35407 L2.1895 0.966827 L2.1895 1.76189 L0.403114 1.76189     L0.403114 0.966827 zM1.96508 1.01413 C1.88815 1.04533 1.81733 1.07825 1.74004     1.11114 C1.68565 1.13428 1.31205 1.30397 1.28877 1.30397 C1.27624 1.30397     0.895054 1.1303 0.843936 1.10973 C0.768751 1.07949 0.695865 1.04077 0.623853     1.0128 C0.566034 0.990335 0.453042 0.928135 0.403121 0.916509 L0.403121     0.835993 L2.18951 0.835993 L2.18951 0.916509 C2.13818 0.928465 2.02414 0.990174     1.96508 1.01413 zM0.362868 1.80718 L2.22977 1.80718 L2.22977 0.795741     L0.362868 0.795741 z" style="fill:rgb(0,0,0)"/><polygon points="0.403118,1.76189 2.1895,1.76189 2.1895,0.966827 1.2937,1.35407 0.403118,0.966827" style="fill:rgb(255,255,255)"/></g></svg>
